X: 305679
M: 2/4
L: 1/16
K: C
cBcd g2g2 | gf d4 f2 | ecBc A2dc | BcAB GABG |\
cBce g2g2 | gf d4 f2 | ecBc AfdB | d4 c2 H|]
dB G4 ef | ge c4 ag | fgef decd | BcAB G2Bc |\
dB G4 ef | ge c4 g2 | ^fgag fdef | g2g2"^D.C."g2 |]
EF |\


